svgs/sharp-regular/user-plus.svg

<svg xmlns="http://www.w3.org/2000/svg" viewBox="0 0 640 512"><!--! Font Awesome Pro 6.6.0 by @fontawesome - https://fontawesome.com License - https://fontawesome.com/license (Commercial License) Copyright 2024 Fonticons, Inc. --><path d="M304 128a80 80 0 1 0 -160 0 80 80 0 1 0 160 0zM65 464l318 0L348.5 352 99.5 352 65 464zM384 304l49.2 160L448 512l-50.2 0L50.2 512 0 512l14.8-48L64 304l160 0 160 0zM224 0a128 128 0 1 1 0 256A128 128 0 1 1 224 0zM504 336l0-24 0-64-64 0-24 0 0-48 24 0 64 0 0-64 0-24 48 0 0 24 0 64 64 0 24 0 0 48-24 0-64 0 0 64 0 24-48 0z"/></svg>

<svg xmlns="http://www.w3.org/2000/svg" viewBox="0 0 640 512"><!--! Font Awesome Pro 6.4.2 by @fontawesome - https://fontawesome.com License - https://fontawesome.com/license (Commercial License) Copyright 2023 Fonticons, Inc. --><path d="M304 128a80 80 0 1 0 -160 0 80 80 0 1 0 160 0zM65 464H383L348.5 352H99.5L65 464zM384 304l49.2 160L448 512H397.8 50.2 0l14.8-48L64 304H224 384zM224 0a128 128 0 1 1 0 256A128 128 0 1 1 224 0zM504 336V312 248H440 416V200h24 64V136 112h48v24 64h64 24v48H616 552v64 24H504z"/></svg>
